!!!ONB: MCCC : IJH0420_04 : Extracted Monophonic Melody
!!!COM: Haydn, Joseph
!!!OPR: String Quartet in C major
!!!OMV: 4
!!!SCT: Hob.III:57 ; Op.54 No.2
!!!ODT: 1788///
**kern
*thru
*>A
*clefG2
*k[]
*C:
*M2/4
16.G
32G
64r
64r
64r
64r
64r
64r
64r
64r
64r
64r
64r
64r
64r
64r
64r
64r
64r
64r
64r
64r
64r
64r
64r
64r
=1
4c
4r
=2
4r
8r
8gg
=3
8.gg
32aa
32ff
8ee
16.ff
32dd
=4
4cc
8b
8r
=5
4r
8r
16.g
32g
=6
8.aa
48ccc
48bb
48aa
16gg
16ff
16ee
16dd
=7
8cc
8r
8.g
32a
32f
=8
*>1st ending
8e
8r
8r
=9
*>2nd ending
*>A
16.G
32G
64r
64r
64r
64r
64r
64r
64r
64r
64r
64r
64r
64r
64r
64r
64r
64r
64r
64r
64r
64r
64r
64r
64r
64r
=10
4c
4r
=11
4r
8r
8gg
=12
8.gg
32aa
32ff
8ee
16.ff
32dd
=13
4cc
8b
8r
=14
4r
8r
16.g
32g
=15
8.aa
48ccc
48bb
48aa
16gg
16ff
16ee
16dd
=16
8cc
8r
8.g
32a
32f
=17
*>1st ending
8e
8r
8r
=18
*>2nd ending
*>B
8e
8r
8r
16.g
32g
=19
[4cc
16cc]
32b
32cc
32b
32cc
32ee
32cc
=20
8g
8r
8r
16.g
32g
=21
[4dd
16dd]
32cc#
32dd
32cc#
32dd
32ff
32dd
=22
8g
8r
8r
16.g
32g
=23
4ee[
16ee]
32dd#
32ee
32dd#
32ee
32ff
32dd
=24
32dd
32cc
32b
32cc
32b
32cc
32ee
32cc
32cc
32b
32dd
32cc
32ee
32dd
32ff#
32gg
=25
32gg
32dd#
32dd#
32ee
32ee
32b
32cc
32a
8g
16.a
32g
=26
8g
8r
8r
16.g
32g
=27
4cc[
16cc]
32b
32cc
32b
32cc
32ee
32cc
=28
8g
8r
8r
16.g
32g
=29
[4dd
16dd]
32cc#
32dd
32cc#
32dd
32ff
32dd
=30
8g
8r
8r
16.g
32g
=31
4ee[
16ee]
32dd#
32ee
32dd#
32ee
32ff
32dd
=32
32dd
32cc
32b
32cc
32b
32cc
32ee
32cc
32cc
32b
32dd
32cc
32ee
32dd
32ff#
32gg
=33
32gg
32dd#
32dd#
32ee
32ee
32b
32cc
32a
8g
16.a
32g
=34
8g
8r
8r
16.g
32g
=35
4ff[
16ff]
32ee
32ff
32ee
32ff
32aa
32ff
=36
8ee
8r
8r
16.cc
32cc
=37
4bb-[
16bb-]
32aa
32bb-
32aa
32bb-
32ddd
32bb-
=38
8aa
8r
8r
16.a
32a
=39
4aa[
16aa]
32gg#
32aa
32gg#
32aa
32bb-
32gg
=40
32gg
32ff
32ee
32ff
32ee
32ff
32aa
32ff
32ff
32ee
32gg
32ff
32aa
32gg
32bb
32ccc
=41
32ccc
32gg#
32gg#
32aa
32aa
32ee
32ee
32ff
32ff
32cc#
32cc#
32dd
32dd
32a
32dd
32cc
=42
32cc
32b
32a
32g
8G
8r
16.g
32g
=43
4cc[
16cc]
32b
32cc
32b
32cc
32ee
32cc
=44
8g
8r
8r
16.g
32g
=45
[4dd
16dd]
32cc#
32dd
32cc#
32dd
32ff
32dd
=46
8dd
8r
8r
16.g
32g
=47
8.ee
16ff
8.ff
32ee
32ff
=48
32gg
32ff
32ee
32ff
32gg
32aa
32bb
32ccc
32ccc
32gg#
32gg#
32aa
32aa
32ee
32ff
32dd
=49
8cc[
32cc]
32ee
32gg
32ee
32gg
32ee
32gg
32ee
16ff
16b
=50
*k[b-e-a-]
*c:
8cc
8r
8r
16.g
32g
=51
[4cc
16cc]
32b
32cc
32b
32cc
32ee-
32cc
=52
8g
8r
8r
16.g
32g
=53
4a-[
16a-]
32b-
32cc
32dd-
32ee-
32ff
32dd-
=54
4b-[
16b-]
32cc
32dd-
32ee-
32dd-
32cc
32dd-
=55
16.cc
32dd
16.dd
64cc
64dd
16.ee-
32ff
16.ff
64ee-
64ff
=56
8gg
32bb-
32aa-
32gg
32aa-
16bb-
32aa-
32gg
32ff
32ee-
32dd
32ee-
=57
32dd
32cc
32b
32cc
32dd
32ee-
32cc
32a-
8g
8f
=58
4e-
8r
16.b-
32b-
=59
4aa-[
16aa-]
32gg
32aa-
32gg
32aa-
32bb-
32aa-
=60
8gg
8r
8r
16.g
32g
=61
4gg[
16gg]
32ff#
32gg
32ff#
32gg
32aa-
32ff
=62
8ee-
8r
8r
16.g
32g
=63
4ee-[
16ee-]
32dd
32cc
32b
32cc
32dd
32cc
=64
8gg
8r
32ff
32ee-
32dd
32cc
32b
32cc
32dd
32cc
=65
8b
8r
32f
32e-
32d
32c
32B
32c
32d
32c
=66
8B
8r
=67
*>C
*k[]
*C:
8e
8f
4r
=68
8f#
8g
8a
8b
=69
8dd
8cc
8b
8cc
=70
8cc#
8dd
8ff
8ee
=71
8ee
8dd
8ccc
8ccc
=72
8ccc
8bb
8ccc
8ccc
=73
8ccc
8bb
8ccc
8ccc
=74
8aa
8aa
16gg
16ff#
16ee
16ff#
=75
4gg
=76
*>C
8e
8f
4r
=77
8f#
8g
8a
8b
=78
8dd
8cc
8b
8cc
=79
8cc#
8dd
8ff
8ee
=80
8ee
8dd
8ccc
8ccc
=81
8ccc
8bb
8ccc
8ccc
=82
8ccc
8bb
8ccc
8ccc
=83
8aa
8aa
16gg
16ff#
16ee
16ff#
=84
4gg
=85
*>D
8b
8cc
4r
=86
8cc#
8dd
8ff
8ee
=87
8ee
8dd
8ee
8ff
=88
8ff#
8gg
8ccc
8bb-
=89
8bb-
8aa
8aa
8ee
=90
8gg
8ff
8aa
8dd
=91
8ff
8ee
8gg
8ee
=92
8cc#
8dd
8a
8dd
=93
8cc
8b
8b
8cc
=94
8ee
8dd
8dd
8ee
=95
8gg
8ff
4r
=96
2r
=97
4r
8dd
8ee
=98
8gg
8ff
4r
=99
2r
=100
2r
=101
4r
8e
8f
=102
8f#
8g
8a
8b
=103
8dd
8cc
8b
8cc
=104
8cc#
8dd
8ff
8ee
=105
8ee
8dd
8ccc
8ccc
=106
8ccc
8bb
8ccc
8ccc
=107
8ccc
8bb
8ccc
8ccc
=108
8aa
8aa
16cc
16b
16a
16b
=109
8cc
8r
8b
8cc
=110
8cc#
8dd
8ff
8ee
=111
8ee
8dd
8ee
8ff
=112
8ff#
8gg
8ccc
8bb-
=113
8bb-
8aa
8aa
8ee
=114
8gg
8ff
8aa
8dd
=115
8ff
8ee
8gg
8ee
=116
8cc#
8dd
8a
8dd
=117
8cc
8b
8b
8cc
=118
8ee
8dd
8dd
8ee
=119
8gg
8ff
4r
=120
2r
=121
4r
8dd
8ee
=122
8gg
8ff
4r
=123
2r
=124
2r
=125
4r
8e
8f
=126
8f#
8g
8a
8b
=127
8dd
8cc
8b
8cc
=128
8cc#
8dd
8ff
8ee
=129
8ee
8dd
8ccc
8ccc
=130
8ccc
8bb
8ccc
8ccc
=131
8ccc
8bb
8ccc
8ccc
=132
8aa
8aa
16cc
16b
16a
16b
=133
8cc
8cc
8ff
8ff
=134
8ff
8ee
8dd#
8dd#
=135
8dd#
8ee
8ee
8ee
=136
8ee
8dd
8cc#
8cc#
=137
8cc#
8dd
8aa
8aa
=138
8aa
8gg
8ccc
8ccc
=139
8ccc
8bb
8ccc
8ccc
=140
8ccc
8bb
8ccc
8ccc
=141
8ccc
8bb
8ccc
8ccc
=142
2fff[
=143
4fff]
8r
16.G
32G
=144
4c
4r
=145
4r
8r
8gg
=146
8.gg
32aa
32ff
8ee
16.ff
32dd
=147
4cc
8b
8r
=148
4r
8r
16.g
32g
=149
8.aa
48ccc
48bb
48aa
16gg
16ff
16ee
16dd
=150
8cc
8r
8.g
32a
32f
=151
8e
8r
8r
16.cc
32cc
=152
4bb-[
16bb-]
32aa
32bb-
32aa
32bb-
32ccc
32bb-
=153
8aa
8r
8r
16.aa
32aa
=154
4fff[
16fff]
32eee
32ddd
32eee
32ddd
32ccc
32bb
=155
8ccc
8r
8r
16.cc
32cc
=156
4bb-[
16bb-]
32aa
32bb-
32aa
32bb-
32ccc
32bb-
=157
8aa
8r
8r
16.aa
32aa
=158
8gg
8ff
32gg
32ff
32ee
32dd
32ee
32dd
32cc
32b
=159
8cc
8r
32g
32f
32e
32d
32e
32d
32c
32B
=160
8c
8r
8e
16r
16e
=161
8c
8r
4r
==
*-
